img/vector/calendar.svg

<svg width="35" height="35" viewBox="0 0 35 35" fill="none" xmlns="http://www.w3.org/2000/svg">
<path d="M13.3633 3.33334L13.355 5.00001H21.5333L21.5433 3.33334H13.3633Z" fill="white"/>
<path d="M26.6667 5.00168V1.66502C26.6667 0.745008 25.9183 0 25 0C24.08 0 23.3333 0.745008 23.3333 1.66502V5.00168C23.3333 5.92169 24.0816 6.6667 25 6.6667C25.9199 6.66664 26.6667 5.92163 26.6667 5.00168Z" fill="white"/>
<path d="M10.4167 6.66664C11.1067 6.66664 11.6667 6.11002 11.6667 5.41333V1.25337C11.6667 0.561659 11.1083 0 10.4167 0H9.5833C8.89331 0 8.33331 0.556683 8.33331 1.25337V5.41167C8.33331 6.10504 8.89165 6.66664 9.5833 6.66664H10.4167Z" fill="white"/>
<path d="M6.61666 5.00002L6.62501 3.33334H1.04834C0.468325 3.33334 0 3.81831 0 4.41497V33.92C0 34.5167 0.468325 35 1.04668 35H33.9517C34.5317 35 35 34.5151 35 33.92V4.41497C35 3.81665 34.53 3.33328 33.9517 3.33328H28.345L28.3367 4.99996H33.3333V13.3333H1.66667V5.00002H6.61666ZM6.66664 33.3333H2.38332C1.98665 33.3333 1.66667 33.055 1.66667 32.71V28.3334H6.66664V33.3333ZM6.66664 26.6667H1.66667V21.6667H6.66664V26.6667ZM28.3334 15H33.3334V20H28.3334V15ZM28.3334 21.6667H33.3334V26.6667H28.3334V21.6667ZM28.3334 28.3334H33.3334V32.71C33.3334 33.0533 33.0117 33.3333 32.6167 33.3333H28.3334V28.3334H28.3334ZM21.6667 15H26.6667V20H21.6667V15ZM21.6667 21.6667H26.6667V26.6667H21.6667V21.6667ZM21.6667 28.3334H26.6667V33.3334H21.6667V28.3334ZM15 15H20V20H15V15ZM15 28.3334H20V33.3334H15V28.3334ZM8.33332 15H13.3333V20H8.33332V15ZM8.33332 21.6667H13.3333V26.6667H8.33332V21.6667ZM8.33332 28.3334H13.3333V33.3334H8.33332V28.3334ZM6.66664 15V20H1.66667V15H6.66664Z" fill="white"/>
</svg>

<svg width="35" height="35" fill="none" xmlns="http://www.w3.org/2000/svg"><path d="M13.363 3.333 13.355 5h8.178l.01-1.667h-8.18ZM26.667 5.002V1.665a1.667 1.667 0 0 0-3.334 0v3.337a1.667 1.667 0 0 0 3.334 0ZM10.417 6.667c.69 0 1.25-.557 1.25-1.254v-4.16c0-.691-.559-1.253-1.25-1.253h-.834c-.69 0-1.25.557-1.25 1.253v4.159c0 .693.559 1.255 1.25 1.255h.834Z" fill="#fff"/><path d="m6.617 5 .008-1.667H1.048C.468 3.333 0 3.818 0 4.415V33.92C0 34.517.468 35 1.047 35h32.905c.58 0 1.048-.485 1.048-1.08V4.415c0-.598-.47-1.082-1.048-1.082h-5.607L28.337 5h4.996v8.333H1.667V5h4.95Zm.05 28.333H2.383c-.396 0-.716-.278-.716-.623v-4.377h5v5Zm0-6.666h-5v-5h5v5ZM28.333 15h5v5h-5v-5Zm0 6.667h5v5h-5v-5Zm0 6.666h5v4.377c0 .343-.321.623-.716.623h-4.284v-5ZM21.667 15h5v5h-5v-5Zm0 6.667h5v5h-5v-5Zm0 6.666h5v5h-5v-5ZM15 15h5v5h-5v-5Zm0 13.333h5v5h-5v-5ZM8.333 15h5v5h-5v-5Zm0 6.667h5v5h-5v-5Zm0 6.666h5v5h-5v-5ZM6.667 15v5h-5v-5h5Z" fill="#fff"/></svg>
